picto/customs-de-framed.svg

<svg class="color-immutable" width="30" height="30" viewBox="0 0 30 30" fill="none" xmlns="http://www.w3.org/2000/svg"><path d="M29.9999 0H0V29.9999H29.9999V0Z" fill="#2D327D"/><path d="M25.4999 2.99999C26.3249 2.99999 26.9999 3.67499 26.9999 4.49999V25.4999C26.9999 26.3249 26.3249 26.9999 25.4999 26.9999H4.49999C3.67499 26.9999 2.99999 26.3249 2.99999 25.4999V4.49999C2.99999 3.67499 3.67499 2.99999 4.49999 2.99999H25.4999ZM25.4999 2.62499H4.49999C3.46612 2.62499 2.62499 3.46612 2.62499 4.49999V25.4999C2.62499 26.5338 3.46612 27.3749 4.49999 27.3749H25.4999C26.5338 27.3749 27.3749 26.5338 27.3749 25.4999V4.49999C27.3749 3.46612 26.5338 2.62499 25.4999 2.62499Z" fill="white"/><path d="M21.7494 10.5001H17.738V9.59946C17.738 8.85478 17.1324 8.24938 16.3873 8.24938H13.6125C12.8673 8.24938 12.2626 8.85478 12.2626 9.59946V10.5001H8.2503C7.00822 10.5001 5.99925 11.5075 5.99925 12.7497V21.7494C5.99925 22.9917 7.00822 23.9991 8.2503 23.9991H21.7494C22.9924 23.9991 24.0004 22.9917 24.0004 21.7494V12.7498C24.0004 11.5075 22.9925 10.5001 21.7494 10.5001ZM16.6882 10.5001H13.3123V9.29953H16.6882V10.5001Z" fill="white"/><path d="M12.7718 11.9247C9.85289 11.9247 7.48484 14.2167 7.48484 17.1358C7.48484 20.0549 9.85289 22.4999 12.7718 22.4999C15.6907 22.4999 18.0595 20.0549 18.0595 17.1358C18.0596 14.2167 15.6907 11.9247 12.7718 11.9247ZM12.7718 21.0948C10.6815 21.0948 8.98424 19.3976 8.98424 17.3067C8.98424 15.2167 10.6816 13.5194 12.7718 13.5194C14.862 13.5194 16.5593 15.2166 16.5593 17.3067C16.5593 19.3976 14.862 21.0948 12.7718 21.0948Z" fill="#EB0000"/><path d="M10.725 17.8499H14.8498C15.1609 17.8499 15.4127 17.5982 15.4127 17.2872C15.4127 16.977 15.1609 16.7247 14.8498 16.7247H10.725C10.4139 16.7247 10.1631 16.9771 10.1631 17.2872C10.1631 17.5982 10.4139 17.8499 10.725 17.8499Z" fill="black"/><path d="M12.4129 15.306V15.48L11.8451 16.1594H12.4315V16.3527H11.5459V16.1694L12.1086 15.4992H11.5845V15.306H12.4129Z" fill="black"/><path d="M12.919 15.5494C13.0326 15.5494 13.1254 15.5871 13.1975 15.6625C13.2686 15.737 13.3042 15.8362 13.3042 15.9604C13.3042 16.0888 13.2662 16.1911 13.1903 16.2675C13.1192 16.3386 13.0266 16.3742 12.9125 16.3742C12.7908 16.3742 12.6939 16.3347 12.6219 16.2554C12.5531 16.1799 12.5188 16.0821 12.5188 15.9618C12.5188 15.8435 12.5521 15.7473 12.619 15.6733C12.693 15.5906 12.793 15.5494 12.919 15.5494ZM12.9083 15.7112C12.8535 15.7112 12.8098 15.7334 12.7773 15.7778C12.7444 15.8227 12.7279 15.884 12.7279 15.9618C12.7279 16.0424 12.7441 16.1042 12.7765 16.1472C12.8099 16.1907 12.8555 16.2123 12.9133 16.2123C12.9672 16.2123 13.0099 16.1925 13.0414 16.1529C13.0772 16.1091 13.0951 16.0453 13.0951 15.9618C13.0951 15.8835 13.0794 15.8227 13.0479 15.7791C13.015 15.7338 12.9685 15.7112 12.9083 15.7112Z" fill="black"/><path d="M13.652 15.306V16.3527H13.4443V15.306H13.652Z" fill="black"/><path d="M14.0301 15.306V16.3527H13.8225V15.306H14.0301Z" fill="black"/></svg>

<svg class="color-immutable" width="30" height="30" viewBox="0 0 30 30" fill="none" xmlns="http://www.w3.org/2000/svg"><path d="M30 0H0v30h30V0Z" fill="#2D327D"/><path d="M25.5 3c.825 0 1.5.675 1.5 1.5v21c0 .825-.675 1.5-1.5 1.5h-21c-.825 0-1.5-.675-1.5-1.5v-21C3 3.675 3.675 3 4.5 3h21Zm0-.375h-21A1.877 1.877 0 0 0 2.625 4.5v21c0 1.034.841 1.875 1.875 1.875h21a1.877 1.877 0 0 0 1.875-1.875v-21A1.877 1.877 0 0 0 25.5 2.625Z" fill="#fff"/><path d="M21.75 10.5h-4.012v-.9c0-.745-.606-1.35-1.35-1.35h-2.776a1.35 1.35 0 0 0-1.35 1.35v.9H8.25A2.251 2.251 0 0 0 6 12.75v9A2.251 2.251 0 0 0 8.25 24h13.5A2.25 2.25 0 0 0 24 21.75v-9a2.25 2.25 0 0 0-2.25-2.25Zm-5.062 0h-3.376V9.3h3.376v1.2Z" fill="#fff"/><path d="M12.772 11.925c-2.92 0-5.287 2.292-5.287 5.21 0 2.92 2.368 5.365 5.287 5.365s5.287-2.445 5.287-5.364c0-2.92-2.368-5.211-5.287-5.211Zm0 9.17a3.79 3.79 0 0 1-3.788-3.788 3.79 3.79 0 0 1 3.788-3.788 3.79 3.79 0 0 1 3.787 3.788 3.79 3.79 0 0 1-3.787 3.788Z" fill="#EB0000"/><path d="M10.725 17.85h4.125a.563.563 0 1 0 0-1.125h-4.125a.562.562 0 0 0 0 1.125ZM12.413 15.306v.174l-.568.68h.586v.193h-.885v-.184l.563-.67h-.524v-.193h.828ZM12.919 15.55c.114 0 .206.037.278.112a.413.413 0 0 1 .107.298c0 .129-.038.231-.114.307a.376.376 0 0 1-.277.107.373.373 0 0 1-.291-.119.419.419 0 0 1-.103-.293c0-.118.033-.215.1-.289a.382.382 0 0 1 .3-.124Zm-.01.161a.154.154 0 0 0-.132.067.305.305 0 0 0-.05.184c0 .08.017.142.05.185a.163.163 0 0 0 .136.065c.054 0 .097-.02.128-.06a.296.296 0 0 0 .054-.19.307.307 0 0 0-.047-.183.162.162 0 0 0-.14-.068ZM13.652 15.306v1.047h-.208v-1.047h.208ZM14.03 15.306v1.047h-.207v-1.047h.207Z" fill="#000"/></svg>
